X: 39231
T: Tabhair Dom Do Lámh
R: waltz
M: 3/4
K: Gmajor
D2|E2 G2 G2|G4 D2|E2 G2 G2|G4 D2|E2 G2 G2|G2 A2 B2|B2 e2 d2|B4 AG|
A2 A2 ed|B2 B2 dB|A2 AB AG|E4 D2|E2 G2 G2|G4 D2|E2 G2 G2|G4 D2|
E2 G2 G2|G2 A2 B2|D2 DB AB|G4 D2|E2 G2 G2|G2 A2 B2|B2 e2 d2|B4 AG|
A2 A2 ed|B2 B2 dB|A2 A2 (3Bcd|e4 dB|d2 d2 e2|g4 ed|e2 e2 g2|a4 ge|
g2 g2 de|g2 g2 de|g2 g2 a2|b6|b2 b2 b2|b4 ag|ag ab ab|a4 gf|
e2 e2 ge|d2 d2 gd|B2 B2 dB|A4 (3cBA|G2 G2 (3Bcd|=f4 ed|e2 e2 g2|e4 dB|
d2 d2 g2|B2 B2 dB|A2 Ac BA|G6||

